X: 8
T:I Was Roaming in the Gloaming
M:3/4
L:1/8
S:James Whiteside manuscript
R:Air
K:G
"Moderato"(3DEF|G2 G2 AF|GF D2 GA|B2 c2 BG|A4 (3ABc|
d2 ef e2|dc AG FA|G2 GF D2|D4||
dc|B2 GB dc|AF D2 dc|B2 GB dc|A4 (3ABc|
d2 ef e2|dc AG FA|G2 GF D2|D4||

